X: 1562
T: Pencereden Kuş Uçtu
C: (Anonim)
O: Turkey
F: http://compmusic.upf.edu/node/140
N: hicaz--turku--nimsofyan--pencereden_kus--
N: makam= hicaz
N: form= turku
N: usul= nimsofyan = 2/4
M: 2/4
L: 1/16
K: C _7/8B ^f ^c 
Q: 1/4=66
%%MIDI tuningsystem comma53
e=f2f fe(3dcd  | e2ed d3/2c/(3BAB  | \
w:  ARANAĞME  |   | 
cd2d d3/2c/Bc  | 
w:   | 
BAA2 A/B/c/d/e/g/=f  | e=f2f fe(3dcd  | \
w:   |  ARANAĞME  | 
e2ed d3/2c/(3BAB  | 
w:   | 
cd2d d3/2c/Bc  | BAA2 A/B/c/d/e2  | A2cd ee3  | \
w:   |   |  *  Pen ce re den   | 
ee3 =f3/2e/d2  | 
w:  kuş_ uç tu    | 
cded edde  | dccd c2c/B/A/B/  | A2cd ee3  | 
w:  Yan *  dı  *  yü rek   |  tu tuş *  *  tu   SAZ  |  *  Pen ce re den   | 
ee3 =f3/2e/d2  | cded edde  | dccd c2=f{e}f  | \
w:  kuş_ uç tu    |  Yan *  dı  *  yü rek   |  tu tuş *  *  tu   SAZ  | 
e=f2f f3/2e/d2  | 
w:  Bi zim  de  böy *  le   | 
ze2d d3/2c/(3BAB  | zd2d dcBc  | BA3 =f3/2e/f2  | \
w:  ol ma mı *  za    |  Kom şu lar  *  *  se  |  bep_ ol du    | 
e=f2f f3/2e/d2  | 
w:  Bi zim  de  böy *  le   | 
ze2d d3/2c/(3BAB  | zd2d dcBc  | BA3 A4  | |


